X:241
T:Reel des Bretelles
T:Reel de Longueuil
S:Repertoire d'Isidore Soucy
Z:robin.beech@mcgill.ca
M:4/4
L:1/8
K:A
a2A2 A2cA | D2A2 Acec | d2B2 B2BA | GABc defg |
a2A2 A2cA | D2A2 Acec | defg afed | cABG A4 ::
A,2A2 C2A2 | A,2Ac BAGF | E2e2 G2e2 | E2eg fecB |
A,2A2 C2A2 | A,2Ac BAGF | E2e2 G2e2 | edcB A4 :|
